src/icons/svg/chevron-left.svg

<svg width="20" height="20" fill="none" xmlns="http://www.w3.org/2000/svg"><path d="M11.967 5.333c-.166.089-4.721 4.66-4.768 4.784a.716.716 0 0 0 .015.49c.029.061 1.105 1.162 2.395 2.449 2.222 2.22 2.349 2.34 2.491 2.368.401.08.739-.183.739-.574a.712.712 0 0 0-.053-.256c-.029-.061-.982-1.041-2.119-2.177l-2.066-2.066 2.096-2.101c1.987-1.99 2.099-2.108 2.127-2.25a.673.673 0 0 0-.095-.506c-.152-.213-.521-.292-.762-.161" fill="#19191C" fill-rule="evenodd"/></svg>

<svg width="20" height="20" viewBox="0 0 20 20" fill="none" xmlns="http://www.w3.org/2000/svg"><path d="M11.967 5.333 C 11.801 5.422,7.246 9.993,7.199 10.117 C 7.146 10.259,7.152 10.476,7.214 10.607 C 7.243 10.668,8.319 11.769,9.609 13.056 C 11.831 15.276,11.958 15.396,12.100 15.424 C 12.501 15.504,12.839 15.241,12.839 14.850 C 12.839 14.770,12.815 14.655,12.786 14.594 C 12.757 14.533,11.804 13.553,10.667 12.417 L 8.601 10.351 10.697 8.250 C 12.684 6.260,12.796 6.142,12.824 6.000 C 12.860 5.821,12.823 5.626,12.729 5.494 C 12.577 5.281,12.208 5.202,11.967 5.333 " fill="#19191C" stroke="none" fill-rule="evenodd"></path></svg>
